X:256
T:Example 2d.
S:Bruce & Emmett's Drummers and Fifers Guide (1862), p. 25
M:9/8
L:1/8
K:Em
BBB B2A G2B|ddd d2B d2g|BBB B2A G2F|E2e efd e3::d2g gaf g3|B2d deB d2c|BBB B2A G2F|E2e efd e3:||

